X: 39314
T: Talla Bhreacais
R: strathspey
M: 4/4
K: Dmajor
|:A,<D D>A, B,<E E>G|F>E D>A, B,<D B,>A,|A,<D D>A, B,<E E>G|F>E D>A, B,<D D2:|
F<A A>F G>B B2|(A>F) E>F D>E D<A,|F<A A>F G>B B2|A>F E>G F<D D2|
F<A A>F G>B B2|(A>F) E>F D>E D<A,|A,<D D>A, B,<E E>G|F>E D>A, B,<D D2||

